X: 646
P: Longways for as many as will
M: C|
L: 1/8
K: D
dc |\
d2A2 B2dc | d2D2 E2dc | d2A2 (Bc) (dE) | (GF)(ED) D2 :| FG |\
d2A2 B2dc | d2D2 E2dc |
d2A2 (Bc) (dE) | (GF)(ED) D2de |\
f2dc B2cd | e2cB ^A2fe | d2ef (gf)(ed) | c4 B2cd |\
d2A2 B2dc | d2D2 E2dc | d2A2 (Bc) (dE) | (GF)(ED) D2 |]

